file/pellucid.svg

<?xml version="1.0" encoding="UTF-8" standalone="no"?>
<!DOCTYPE svg PUBLIC "-//W3C//DTD SVG 1.1//EN" "http://www.w3.org/Graphics/SVG/1.1/DTD/svg11.dtd">
<svg width="100%" height="100%" viewBox="0 0 560 400" version="1.1" xmlns="http://www.w3.org/2000/svg" xmlns:xlink="http://www.w3.org/1999/xlink" xml:space="preserve" xmlns:serif="http://www.serif.com/" style="fill-rule:evenodd;clip-rule:evenodd;stroke-linejoin:round;stroke-miterlimit:1.41421;">
    <g transform="matrix(1.88324,0,0,1.88324,-162.561,-131.356)">
        <path d="M237.34,210.645L237.34,178.335L163.36,178.335L163.36,210.645C163.36,231.075 179.92,247.635 200.35,247.635C220.78,247.635 237.34,231.075 237.34,210.645Z" style="fill:rgb(37,183,234);fill-rule:nonzero;"/>
        <path d="M269.65,104.265L237.34,104.265L237.34,178.245L269.65,178.245C290.08,178.245 306.64,161.685 306.64,141.255C306.64,120.915 290.08,104.265 269.65,104.265Z" style="fill:rgb(71,183,114);fill-rule:nonzero;"/>
        <path d="M163.36,104.265L163.36,178.605L237.34,178.605L237.61,178.335L237.61,104.265L163.36,104.265Z" style="fill:rgb(84,98,172);fill-rule:nonzero;"/>
    </g>
</svg>

<svg clip-rule="evenodd" fill-rule="evenodd" stroke-linejoin="round" stroke-miterlimit="1.41421" viewBox="0 0 560 400" xmlns="http://www.w3.org/2000/svg"><g fill-rule="nonzero" transform="matrix(1.88324 0 0 1.88324 -162.561 -131.356)"><path d="m237.34 210.645v-32.31h-73.98v32.31c0 20.43 16.56 36.99 36.99 36.99s36.99-16.56 36.99-36.99z" fill="#25b7ea"/><path d="m269.65 104.265h-32.31v73.98h32.31c20.43 0 36.99-16.56 36.99-36.99 0-20.34-16.56-36.99-36.99-36.99z" fill="#47b772"/><path d="m163.36 104.265v74.34h73.98l.27-.27v-74.07z" fill="#5462ac"/></g></svg>
